Newaita-dark/actions/16/run-build.svg

<?xml version="1.0" encoding="UTF-8"?>
<svg xmlns="http://www.w3.org/2000/svg" xmlns:xlink="http://www.w3.org/1999/xlink" width="16pt" height="16pt" viewBox="0 0 16 16" version="1.1">
<g id="surface1">
<path style=" stroke:none;fill-rule:nonzero;fill:rgb(74.117649%,74.117649%,74.117649%);fill-opacity:1;" d="M 7.277344 0.785156 C 6.910156 0.785156 6.613281 1.082031 6.613281 1.449219 L 6.613281 2.257812 C 5.949219 2.40625 5.324219 2.667969 4.765625 3.019531 L 4.195312 2.449219 C 3.9375 2.191406 3.519531 2.191406 3.261719 2.449219 L 2.324219 3.386719 C 2.066406 3.644531 2.066406 4.0625 2.324219 4.320312 L 2.894531 4.890625 C 2.542969 5.449219 2.28125 6.074219 2.132812 6.738281 L 1.324219 6.738281 C 0.957031 6.738281 0.660156 7.035156 0.660156 7.402344 L 0.660156 8.726562 C 0.660156 9.089844 0.957031 9.386719 1.324219 9.386719 L 2.132812 9.386719 C 2.28125 10.050781 2.542969 10.675781 2.894531 11.234375 L 2.324219 11.804688 C 2.066406 12.066406 2.066406 12.480469 2.324219 12.742188 L 3.261719 13.675781 C 3.519531 13.9375 3.9375 13.9375 4.195312 13.675781 L 4.765625 13.105469 C 5.324219 13.460938 5.949219 13.71875 6.613281 13.871094 L 6.613281 14.679688 C 6.613281 15.046875 6.910156 15.339844 7.277344 15.339844 L 8.601562 15.339844 C 8.964844 15.339844 9.261719 15.046875 9.261719 14.679688 L 9.261719 13.871094 C 9.925781 13.71875 10.550781 13.460938 11.109375 13.105469 L 11.679688 13.675781 C 11.941406 13.9375 12.355469 13.9375 12.617188 13.675781 L 13.550781 12.742188 C 13.8125 12.480469 13.8125 12.066406 13.550781 11.804688 L 12.980469 11.234375 C 13.335938 10.675781 13.59375 10.050781 13.746094 9.386719 L 14.554688 9.386719 C 14.921875 9.386719 15.214844 9.089844 15.214844 8.726562 L 15.214844 7.402344 C 15.214844 7.035156 14.921875 6.738281 14.554688 6.738281 L 13.746094 6.738281 C 13.59375 6.074219 13.335938 5.449219 12.980469 4.890625 L 13.550781 4.320312 C 13.8125 4.0625 13.8125 3.644531 13.550781 3.386719 L 12.617188 2.449219 C 12.355469 2.191406 11.941406 2.191406 11.679688 2.449219 L 11.109375 3.019531 C 10.550781 2.667969 9.925781 2.40625 9.261719 2.257812 L 9.261719 1.449219 C 9.261719 1.082031 8.964844 0.785156 8.601562 0.785156 Z M 7.9375 3.101562 C 10.6875 3.101562 12.898438 5.316406 12.898438 8.0625 C 12.898438 10.8125 10.6875 13.023438 7.9375 13.023438 C 5.191406 13.023438 2.976562 10.8125 2.976562 8.0625 C 2.976562 5.316406 5.191406 3.101562 7.9375 3.101562 Z M 7.9375 3.101562 "/>
<path style=" stroke:none;fill-rule:nonzero;fill:rgb(47.058824%,56.470591%,61.176473%);fill-opacity:1;" d="M 6.882812 5.609375 C 6.757812 5.605469 6.632812 5.652344 6.539062 5.742188 C 6.449219 5.828125 6.394531 5.949219 6.394531 6.078125 L 6.394531 10.046875 C 6.394531 10.214844 6.488281 10.371094 6.632812 10.457031 C 6.78125 10.539062 6.960938 10.535156 7.105469 10.449219 L 10.414062 8.464844 C 10.554688 8.378906 10.640625 8.226562 10.640625 8.0625 C 10.640625 7.898438 10.554688 7.746094 10.414062 7.660156 L 7.105469 5.675781 C 7.039062 5.636719 6.960938 5.613281 6.882812 5.609375 Z M 7.332031 6.90625 L 9.261719 8.0625 L 7.332031 9.21875 Z M 7.332031 6.90625 "/>
</g>
</svg>

<svg xmlns="http://www.w3.org/2000/svg" width="16pt" height="16pt" viewBox="0 0 16 16"><path d="M7.277.785a.664.664 0 0 0-.664.664v.809c-.664.148-1.289.41-1.847.762l-.57-.57a.66.66 0 0 0-.934 0l-.938.937a.66.66 0 0 0 0 .933l.57.57a5.882 5.882 0 0 0-.761 1.848h-.809a.664.664 0 0 0-.664.664v1.325c0 .363.297.66.664.66h.809c.148.664.41 1.289.762 1.847l-.57.57a.665.665 0 0 0 0 .938l.937.934a.653.653 0 0 0 .933 0l.57-.57a5.89 5.89 0 0 0 1.848.765v.809c0 .367.297.66.664.66h1.325a.66.66 0 0 0 .66-.66v-.809a5.89 5.89 0 0 0 1.847-.766l.57.57a.658.658 0 0 0 .938 0l.934-.933a.658.658 0 0 0 0-.937l-.57-.57a5.89 5.89 0 0 0 .765-1.848h.809a.66.66 0 0 0 .66-.66V7.402a.66.66 0 0 0-.66-.664h-.809a5.89 5.89 0 0 0-.766-1.847l.57-.57a.653.653 0 0 0 0-.934l-.933-.938a.665.665 0 0 0-.937 0l-.57.57a5.882 5.882 0 0 0-1.848-.761v-.809a.663.663 0 0 0-.66-.664zm.66 2.317a4.95 4.95 0 0 1 4.961 4.96c0 2.75-2.21 4.961-4.96 4.961a4.95 4.95 0 0 1-4.961-4.96 4.953 4.953 0 0 1 4.96-4.961zm0 0" fill="#bdbdbd"/><path d="M6.883 5.61a.477.477 0 0 0-.488.468v3.969c0 .168.093.324.238.41a.475.475 0 0 0 .472-.008l3.31-1.984a.472.472 0 0 0 0-.805l-3.31-1.984a.493.493 0 0 0-.222-.067zm.449 1.296l1.93 1.157-1.93 1.156zm0 0" fill="#78909c"/></svg>
